X: 1557
T: Greencastle Hornpipe, The
R:hornpipe
N:"Collected by F. O'Neill"
B:O'Neill's 1557
Z:Transcribed by Michael Hogan
Z:Slurs corrected by John Chambers
M:C|
L:1/8
K:G
(dc) | BGDG BGDG | (3gag fg e2 (dc) | BGDG BGDG | dcBc A2 (dc) |
BGDG BGDG | (3gag fg e2 (dc) | Bdfe dcAF | G2 GG G2 :|
|: (ga) | bagf efga | bagf e2 (fg) | agfe defg | agfe d2 (3def |
gfgd e2d2 | ({d}c)BAB cdef | gfgd ecAF | G2 GG G2 :||


